symbolic/24x24/apps/electrum-ltc.svg

<svg xmlns="http://www.w3.org/2000/svg" width="24" height="24" version="1.1">
 <circle style="fill:#3399cc" cx="12" cy="12" r="10"/>
 <path style="opacity:0.2;fill:#ffffff" d="m 12,2 a 10,10 0 0 0 -10,10 10,10 0 0 0 0.01075,0.291 10,10 0 0 1 9.989,-9.791 10,10 0 0 1 9.9895,9.709 10,10 0 0 0 0.01074,-0.20895 10,10 0 0 0 -10,-10 z"/>
 <path style="opacity:0.2" d="M 21.9895,12.2 A 10,10 0 0 1 12,22 10,10 0 0 1 2.011,12.25 10,10 0 0 0 2,12.5 a 10,10 0 0 0 10,10 10,10 0 0 0 10,-10 10,10 0 0 0 -0.01075,-0.29105 z"/>
 <path style="opacity:0.2" d="M 9.9570312,4.1386844 C 9.0866614,4.0915766 8.2459032,4.2643754 7.4960938,4.6972781 6.1666194,5.4648505 5.4047924,6.8916061 5.1796875,8.5625125 3.8449213,9.5926045 2.9902344,10.964687 2.9902344,12.500013 c 0,1.535326 0.8546869,2.907408 2.1894531,3.9375 0.2251052,1.670905 0.9869318,3.097662 2.3164063,3.865234 1.3294795,0.767576 2.9446032,0.712954 4.5039062,0.07227 1.559559,0.640455 3.176422,0.695285 4.505859,-0.07227 1.329517,-0.767596 2.087725,-2.194435 2.3125,-3.865234 1.335482,-1.030199 2.191407,-2.401696 2.191407,-3.9375 0,-1.535804 -0.855925,-2.9073015 -2.191407,-3.9375005 C 18.593586,6.8917046 17.83538,5.4648775 16.505859,4.6972781 15.176422,3.9297273 13.559559,3.9845571 12,4.6250125 11.320172,4.3457014 10.629856,4.1751003 9.9570312,4.1386844 Z m -0.037109,1.015625 C 10.182486,5.1692686 10.453887,5.2181362 10.728516,5.2832156 10.044639,5.7120266 9.3836707,6.2551222 8.7636719,6.8906375 7.9013347,7.1103928 7.0994461,7.4121446 6.3847656,7.7910281 6.6812305,6.8001965 7.2277631,6.0293247 8.0058594,5.5800906 8.5713546,5.2536018 9.2207236,5.1144735 9.9199222,5.1543094 Z m 4.1601558,0 c 0.699198,-0.039836 1.350521,0.099292 1.916016,0.4257812 0.778096,0.449234 1.322675,1.2201058 1.61914,2.2109375 C 16.900554,7.4121446 16.098665,7.1103928 15.236328,6.8906375 14.615728,6.2550462 13.955824,5.7120267 13.271484,5.2832156 13.54636,5.2180369 13.817287,5.1692815 14.080078,5.1543094 Z m -2.078125,0.5898437 c 0.043,0.020953 0.08581,0.036547 0.128906,0.058594 0.401814,0.2055717 0.803534,0.4608267 1.199219,0.7578125 C 12.89472,6.5180625 12.453049,6.4902469 12,6.4902469 c -0.452377,0 -0.893383,0.02794 -1.328125,0.070312 0.39534,-0.2966377 0.795816,-0.5504736 1.197266,-0.7558594 0.04436,-0.022697 0.08855,-0.039009 0.132812,-0.060546 z M 12,7.5097781 c 0.952441,0 1.861478,0.1117466 2.707031,0.3046875 0.589112,0.6353135 1.13955,1.3674968 1.615235,2.1914064 0.475935,0.824344 0.832429,1.666225 1.08789,2.494141 -0.255662,0.828263 -0.611955,1.67175 -1.08789,2.496094 -0.475781,0.824077 -1.026187,1.554399 -1.615235,2.189453 -0.845553,0.192941 -1.75459,0.304687 -2.707031,0.304687 -0.952441,0 -1.861478,-0.111746 -2.7070312,-0.304687 C 8.7039212,16.550506 8.1535154,15.820184 7.6777344,14.996107 7.201799,14.171762 6.8455059,13.328276 6.5898438,12.500013 6.8453051,11.672097 7.201799,10.830217 7.6777344,10.005872 8.1535155,9.1817949 8.7037207,8.4498669 9.2929688,7.8144656 10.138522,7.6215247 11.047559,7.5097781 12,7.5097781 Z M 7.5214844,8.3808719 C 7.2674863,8.7362674 7.0211316,9.1042999 6.7949219,9.4961063 6.5686258,9.8880626 6.3741937,10.283834 6.1933594,10.681654 6.1341196,10.190909 6.1138609,9.714087 6.1367188,9.2636844 6.139204,9.214713 6.146983,9.1694291 6.1503906,9.1211063 6.1900383,9.0943443 6.2249804,9.0653744 6.265625,9.039075 6.6443211,8.7940363 7.0667778,8.5749646 7.5214844,8.3808719 Z m 8.9570316,0 c 0.454706,0.1940927 0.877163,0.4131644 1.255859,0.6582031 0.04143,0.026806 0.0768,0.056698 0.117187,0.083984 0.0034,0.048323 0.01119,0.093607 0.01367,0.1425781 0.02286,0.4504114 6.49e-4,0.9252609 -0.05859,1.4160159 C 17.625901,10.283779 17.431374,9.8880624 17.205078,9.4961063 16.978869,9.1042998 16.732609,8.7362126 16.478516,8.3808719 Z M 11.25,8.5000125 10.279297,12.382825 9.25,12.650404 l -0.25,1 1.029297,-0.267579 L 9.5,15.500013 h 5.25 l 0.5,-1 h -3.5 l 0.417969,-1.673828 1.632812,-0.425781 0.25,-1 -1.632812,0.425781 L 13.25,8.5000125 Z M 5.1132812,9.9941531 c 0.0295,0.8067919 0.1696513,1.6510449 0.4101563,2.5058599 -0.2405841,0.854968 -0.3806515,1.698926 -0.4101563,2.505859 -0.7089113,-0.751789 -1.1035156,-1.608015 -1.1035156,-2.505859 0,-0.897844 0.3946043,-1.754071 1.1035156,-2.5058599 z m 13.7734378,0 c 0.708911,0.7517889 1.103515,1.6080159 1.103515,2.5058599 0,0.897844 -0.394604,1.75407 -1.103515,2.505859 -0.02936,-0.806994 -0.169919,-1.650729 -0.410157,-2.505859 0.240169,-0.855012 0.380812,-1.698976 0.410157,-2.5058599 z M 6.1933594,14.318372 c 0.1808343,0.39782 0.3752664,0.795544 0.6015625,1.1875 0.2262095,0.391807 0.4725645,0.757886 0.7265625,1.113282 -0.4547066,-0.194093 -0.8771633,-0.413165 -1.2558594,-0.658203 -0.040645,-0.0263 -0.075587,-0.05527 -0.1152344,-0.08203 -0.00346,-0.04897 -0.011153,-0.09489 -0.013672,-0.144531 -0.022858,-0.450403 -0.0025,-0.925444 0.056641,-1.416016 z m 11.6132816,0 c 0.05914,0.490572 0.0795,0.965613 0.05664,1.416016 -0.0025,0.04964 -0.01021,0.09556 -0.01367,0.144531 -0.03965,0.02676 -0.07459,0.05573 -0.115234,0.08203 -0.378696,0.245038 -0.801153,0.46411 -1.255859,0.658203 0.254093,-0.355341 0.500353,-0.721475 0.726562,-1.113282 0.226296,-0.391956 0.420823,-0.789625 0.601563,-1.1875 z M 6.3867188,17.208997 c 0.7142911,0.378509 1.5152326,0.680793 2.3769531,0.900391 0.6195914,0.635098 1.2794901,1.178748 1.9628901,1.607422 C 9.7211005,19.955073 8.7831767,19.868719 8.0058594,19.419935 7.2278329,18.970741 6.6829142,18.200199 6.3867188,17.208997 Z m 11.2265622,0 c -0.29626,0.990765 -0.839396,1.761881 -1.617187,2.210938 -0.777261,0.448752 -1.717277,0.535072 -2.722656,0.296875 0.683862,-0.428674 1.342699,-0.972249 1.96289,-1.607422 0.861721,-0.219598 1.662662,-0.521882 2.376953,-0.900391 z m -6.939453,1.230469 c 0.434126,0.04225 0.874467,0.07031 1.326172,0.07031 0.452377,0 0.893383,-0.02794 1.328125,-0.07031 -0.394576,0.295797 -0.796514,0.550831 -1.197266,0.755859 -0.04401,0.02252 -0.08695,0.03917 -0.130859,0.06055 -0.04391,-0.02138 -0.08685,-0.03803 -0.130859,-0.06055 -0.40071,-0.205007 -0.800776,-0.460101 -1.195313,-0.755859 z"/>
 <path style="fill:#ffffff" d="M 9.9570312 3.6386719 C 9.0866614 3.5915641 8.2459032 3.7643629 7.4960938 4.1972656 C 6.1666194 4.964838 5.4047924 6.3915936 5.1796875 8.0625 C 3.8449213 9.092592 2.9902344 10.464674 2.9902344 12 C 2.9902344 13.535326 3.8449213 14.907408 5.1796875 15.9375 C 5.4047927 17.608405 6.1666193 19.035162 7.4960938 19.802734 C 8.8255733 20.57031 10.440697 20.515688 12 19.875 C 13.559559 20.515455 15.176422 20.570285 16.505859 19.802734 C 17.835376 19.035138 18.593584 17.608299 18.818359 15.9375 C 20.153841 14.907301 21.009766 13.535804 21.009766 12 C 21.009766 10.464196 20.153841 9.092699 18.818359 8.0625 C 18.593586 6.3916921 17.83538 4.964865 16.505859 4.1972656 C 15.176422 3.4297148 13.559559 3.4845446 12 4.125 C 11.320172 3.8456889 10.629856 3.6750878 9.9570312 3.6386719 z M 9.9199219 4.6542969 C 10.182486 4.6692561 10.453887 4.7181237 10.728516 4.7832031 C 10.044639 5.2120141 9.3836707 5.7551097 8.7636719 6.390625 C 7.9013347 6.6103803 7.0994461 6.9121321 6.3847656 7.2910156 C 6.6812305 6.300184 7.2277631 5.5293122 8.0058594 5.0800781 C 8.5713546 4.7535893 9.2207236 4.614461 9.9199219 4.6542969 z M 14.080078 4.6542969 C 14.779276 4.614461 15.430599 4.7535894 15.996094 5.0800781 C 16.77419 5.5293121 17.318769 6.3001839 17.615234 7.2910156 C 16.900554 6.9121321 16.098665 6.6103803 15.236328 6.390625 C 14.615728 5.7550337 13.955824 5.2120142 13.271484 4.7832031 C 13.54636 4.7180244 13.817287 4.669269 14.080078 4.6542969 z M 12.001953 5.2441406 C 12.044949 5.2650935 12.087765 5.2806871 12.130859 5.3027344 C 12.532673 5.5083061 12.934393 5.7635611 13.330078 6.0605469 C 12.89472 6.01805 12.453049 5.9902344 12 5.9902344 C 11.547623 5.9902344 11.106617 6.018174 10.671875 6.0605469 C 11.067215 5.7639092 11.467691 5.5100733 11.869141 5.3046875 C 11.913505 5.2819901 11.957692 5.2656781 12.001953 5.2441406 z M 12 7.0097656 C 12.952441 7.0097656 13.861478 7.1215122 14.707031 7.3144531 C 15.296143 7.9497666 15.846581 8.6819499 16.322266 9.5058594 C 16.798201 10.330203 17.154695 11.172084 17.410156 12 C 17.154494 12.828263 16.798201 13.67175 16.322266 14.496094 C 15.846485 15.320171 15.296079 16.050493 14.707031 16.685547 C 13.861478 16.878488 12.952441 16.990234 12 16.990234 C 11.047559 16.990234 10.138522 16.878488 9.2929688 16.685547 C 8.7039212 16.050493 8.1535154 15.320171 7.6777344 14.496094 C 7.201799 13.671749 6.8455059 12.828263 6.5898438 12 C 6.8453051 11.172084 7.201799 10.330204 7.6777344 9.5058594 C 8.1535155 8.6817824 8.7037207 7.9498544 9.2929688 7.3144531 C 10.138522 7.1215122 11.047559 7.0097656 12 7.0097656 z M 7.5214844 7.8808594 C 7.2674863 8.2362549 7.0211316 8.6042874 6.7949219 8.9960938 C 6.5686258 9.3880501 6.3741937 9.7838208 6.1933594 10.181641 C 6.1341196 9.6908963 6.1138609 9.2140745 6.1367188 8.7636719 C 6.139204 8.7147005 6.146983 8.6694166 6.1503906 8.6210938 C 6.1900383 8.5943318 6.2249804 8.5653619 6.265625 8.5390625 C 6.6443211 8.2940238 7.0667778 8.0749521 7.5214844 7.8808594 z M 16.478516 7.8808594 C 16.933222 8.0749521 17.355679 8.2940238 17.734375 8.5390625 C 17.775802 8.5658684 17.811171 8.5957606 17.851562 8.6230469 C 17.85497 8.6713697 17.862749 8.7166536 17.865234 8.765625 C 17.888093 9.2160364 17.865883 9.6908862 17.806641 10.181641 C 17.625901 9.783766 17.431374 9.3880499 17.205078 8.9960938 C 16.978869 8.6042873 16.732609 8.2362001 16.478516 7.8808594 z M 11.25 8 L 10.279297 11.882812 L 9.25 12.150391 L 9 13.150391 L 10.029297 12.882812 L 9.5 15 L 14.75 15 L 15.25 14 L 11.75 14 L 12.167969 12.326172 L 13.800781 11.900391 L 14.050781 10.900391 L 12.417969 11.326172 L 13.25 8 L 11.25 8 z M 5.1132812 9.4941406 C 5.1427809 10.300932 5.2829325 11.145185 5.5234375 12 C 5.2828534 12.854968 5.142786 13.698926 5.1132812 14.505859 C 4.4043699 13.75407 4.0097656 12.897844 4.0097656 12 C 4.0097656 11.102156 4.4043699 10.245929 5.1132812 9.4941406 z M 18.886719 9.4941406 C 19.59563 10.245929 19.990234 11.102156 19.990234 12 C 19.990234 12.897844 19.59563 13.75407 18.886719 14.505859 C 18.857361 13.698865 18.7168 12.85513 18.476562 12 C 18.716731 11.144988 18.857374 10.301024 18.886719 9.4941406 z M 6.1933594 13.818359 C 6.3741937 14.216179 6.5686258 14.613903 6.7949219 15.005859 C 7.0211314 15.397666 7.2674864 15.763745 7.5214844 16.119141 C 7.0667778 15.925048 6.6443211 15.705976 6.265625 15.460938 C 6.2249804 15.434638 6.1900383 15.405668 6.1503906 15.378906 C 6.1469257 15.329934 6.1392378 15.284011 6.1367188 15.234375 C 6.1138608 14.783972 6.1342193 14.308931 6.1933594 13.818359 z M 17.806641 13.818359 C 17.865781 14.308931 17.88614 14.783972 17.863281 15.234375 C 17.860762 15.284011 17.853074 15.329934 17.849609 15.378906 C 17.809962 15.405668 17.77502 15.434638 17.734375 15.460938 C 17.355679 15.705976 16.933222 15.925048 16.478516 16.119141 C 16.732609 15.7638 16.978869 15.397666 17.205078 15.005859 C 17.431374 14.613903 17.625901 14.216234 17.806641 13.818359 z M 6.3867188 16.708984 C 7.1010099 17.087493 7.9019514 17.389777 8.7636719 17.609375 C 9.3832633 18.244473 10.043162 18.788123 10.726562 19.216797 C 9.7211005 19.45506 8.7831767 19.368706 8.0058594 18.919922 C 7.2278329 18.470728 6.6829142 17.700186 6.3867188 16.708984 z M 17.613281 16.708984 C 17.317021 17.699749 16.773885 18.470865 15.996094 18.919922 C 15.218833 19.368674 14.278817 19.454994 13.273438 19.216797 C 13.9573 18.788123 14.616137 18.244548 15.236328 17.609375 C 16.098049 17.389777 16.89899 17.087493 17.613281 16.708984 z M 10.673828 17.939453 C 11.107954 17.981702 11.548295 18.009766 12 18.009766 C 12.452377 18.009766 12.893383 17.981826 13.328125 17.939453 C 12.933549 18.23525 12.531611 18.490284 12.130859 18.695312 C 12.086853 18.717827 12.043906 18.734484 12 18.755859 C 11.956094 18.734484 11.913147 18.717827 11.869141 18.695312 C 11.468431 18.490305 11.068365 18.235211 10.673828 17.939453 z"/>
</svg>

<svg xmlns="http://www.w3.org/2000/svg" width="24" height="24"><circle style="fill:#39c" cx="12" cy="12" r="10"/><path style="opacity:.2;fill:#fff" d="M12 2A10 10 0 0 0 2 12a10 10 0 0 0 .01.291A10 10 0 0 1 12 2.5a10 10 0 0 1 9.99 9.709A10 10 0 0 0 22 12 10 10 0 0 0 12 2z"/><path style="opacity:.2" d="M21.99 12.2A10 10 0 0 1 12 22a10 10 0 0 1-9.989-9.75A10 10 0 0 0 2 12.5a10 10 0 0 0 10 10 10 10 0 0 0 10-10 10 10 0 0 0-.01-.291z"/><path style="opacity:.2" d="M9.957 4.139c-.87-.047-1.711.125-2.46.558-1.33.768-2.092 2.195-2.317 3.866-1.335 1.03-2.19 2.402-2.19 3.937 0 1.535.855 2.907 2.19 3.938.225 1.67.987 3.097 2.316 3.865 1.33.767 2.945.713 4.504.072 1.56.64 3.176.695 4.506-.072 1.33-.768 2.088-2.195 2.312-3.865 1.336-1.03 2.192-2.402 2.192-3.938s-.856-2.907-2.192-3.937c-.224-1.671-.983-3.098-2.312-3.866-1.33-.767-2.946-.712-4.506-.072-.68-.28-1.37-.45-2.043-.486zM9.92 5.154c.262.015.534.064.809.13-.684.428-1.345.971-1.965 1.607-.863.22-1.665.521-2.38.9.297-.99.844-1.762 1.622-2.21.565-.327 1.215-.467 1.914-.427zm4.16 0c.7-.04 1.35.1 1.916.426.778.45 1.323 1.22 1.62 2.211a10.756 10.756 0 0 0-2.38-.9 10.75 10.75 0 0 0-1.965-1.608c.275-.065.546-.114.81-.129zm-2.078.59c.043.021.086.037.129.059.402.205.803.46 1.2.758-.436-.043-.878-.07-1.331-.07-.452 0-.893.027-1.328.07a8.32 8.32 0 0 1 1.197-.756c.045-.023.089-.04.133-.06zM12 7.51c.952 0 1.861.112 2.707.304A12.189 12.189 0 0 1 17.41 12.5a12.176 12.176 0 0 1-2.703 4.686 12.176 12.176 0 0 1-5.414 0A12.165 12.165 0 0 1 6.59 12.5a12.159 12.159 0 0 1 2.703-4.686A12.176 12.176 0 0 1 12 7.51zm-4.479.87c-.254.356-.5.724-.726 1.116-.226.392-.42.788-.602 1.186-.059-.491-.08-.968-.056-1.418.002-.05.01-.095.013-.143.04-.027.075-.056.116-.082a8.345 8.345 0 0 1 1.255-.658zm8.958 0c.454.195.877.414 1.255.66.042.026.077.056.118.083.003.048.01.094.013.143.023.45 0 .925-.058 1.416-.181-.398-.376-.794-.602-1.186-.226-.392-.472-.76-.726-1.115zm-5.229.12-.97 3.883-1.03.267-.25 1 1.03-.267L9.5 15.5h5.25l.5-1h-3.5l.418-1.674 1.633-.426.25-1-1.633.426.832-3.326zM5.113 9.994c.03.807.17 1.651.41 2.506-.24.855-.38 1.699-.41 2.506-.709-.752-1.103-1.608-1.103-2.506 0-.898.394-1.754 1.103-2.506zm13.774 0c.709.752 1.103 1.608 1.103 2.506 0 .898-.394 1.754-1.103 2.506a10.76 10.76 0 0 0-.41-2.506c.24-.855.38-1.699.41-2.506zM6.193 14.318c.181.398.376.796.602 1.188.226.392.472.758.726 1.113a8.345 8.345 0 0 1-1.255-.658c-.041-.026-.076-.055-.116-.082-.003-.049-.01-.095-.013-.145a8.344 8.344 0 0 1 .056-1.416zm11.614 0c.059.49.08.966.056 1.416-.002.05-.01.096-.013.145-.04.027-.075.056-.116.082a8.345 8.345 0 0 1-1.255.658c.254-.355.5-.721.726-1.113.226-.392.42-.79.602-1.188zM6.387 17.21c.714.379 1.515.68 2.377.9.62.635 1.28 1.18 1.963 1.608-1.006.238-1.944.152-2.721-.297-.778-.45-1.323-1.22-1.62-2.211zm11.226 0c-.296.99-.84 1.762-1.617 2.21-.777.45-1.717.536-2.723.298a10.754 10.754 0 0 0 1.963-1.608c.862-.22 1.663-.521 2.377-.9zm-6.94 1.23c.435.043.875.07 1.327.07.452 0 .893-.027 1.328-.07-.394.296-.796.551-1.197.756-.044.023-.087.04-.131.06-.044-.02-.087-.037-.13-.06-.402-.205-.802-.46-1.196-.756z"/><path style="fill:#fff" d="M9.957 3.639c-.87-.047-1.711.125-2.46.558-1.33.768-2.092 2.195-2.317 3.865C3.845 9.092 2.99 10.466 2.99 12c0 1.535.855 2.907 2.19 3.938.225 1.67.987 3.097 2.316 3.865 1.33.767 2.945.713 4.504.072 1.56.64 3.176.695 4.506-.072 1.33-.768 2.088-2.195 2.312-3.866 1.336-1.03 2.192-2.401 2.192-3.937s-.856-2.907-2.192-3.938c-.224-1.67-.983-3.097-2.312-3.865-1.33-.767-2.946-.712-4.506-.072-.68-.28-1.37-.45-2.043-.486zM9.92 4.654c.262.015.534.064.809.13-.684.428-1.345.971-1.965 1.607-.863.22-1.665.521-2.38.9.297-.99.844-1.762 1.622-2.21.565-.327 1.215-.467 1.914-.427zm4.16 0c.7-.04 1.35.1 1.916.426.778.45 1.323 1.22 1.62 2.211a10.756 10.756 0 0 0-2.38-.9 10.75 10.75 0 0 0-1.965-1.608c.275-.065.546-.114.81-.129zm-2.078.59c.043.021.086.037.129.059.402.205.803.46 1.2.758-.436-.043-.878-.07-1.331-.07-.452 0-.893.027-1.328.07a8.32 8.32 0 0 1 1.197-.756c.045-.023.089-.04.133-.06zM12 7.01c.952 0 1.861.112 2.707.304A12.189 12.189 0 0 1 17.41 12a12.176 12.176 0 0 1-2.703 4.686 12.176 12.176 0 0 1-5.414 0A12.165 12.165 0 0 1 6.59 12a12.159 12.159 0 0 1 2.703-4.686A12.176 12.176 0 0 1 12 7.01zm-4.479.87c-.254.356-.5.724-.726 1.116-.226.392-.42.788-.602 1.186-.059-.491-.08-.968-.056-1.418.002-.05.01-.095.013-.143.04-.027.075-.056.116-.082a8.345 8.345 0 0 1 1.255-.658zm8.958 0c.454.195.877.414 1.255.66.042.026.077.056.118.083.003.048.01.094.013.143.023.45 0 .925-.058 1.416-.181-.398-.376-.794-.602-1.186-.226-.392-.472-.76-.726-1.115zM11.25 8l-.97 3.883-1.03.267-.25 1 1.03-.267L9.5 15h5.25l.5-1h-3.5l.418-1.674 1.633-.426.25-1-1.633.426L13.25 8h-2zM5.113 9.494c.03.807.17 1.651.41 2.506-.24.855-.38 1.699-.41 2.506C4.404 13.754 4.01 12.898 4.01 12c0-.898.394-1.754 1.103-2.506zm13.774 0c.709.752 1.103 1.608 1.103 2.506 0 .898-.394 1.754-1.103 2.506a10.76 10.76 0 0 0-.41-2.506c.24-.855.38-1.699.41-2.506zM6.193 13.818c.181.398.376.796.602 1.188.226.392.472.758.726 1.113a8.345 8.345 0 0 1-1.255-.658c-.041-.026-.076-.055-.116-.082-.003-.05-.01-.095-.013-.145a8.345 8.345 0 0 1 .056-1.416zm11.614 0c.059.49.08.966.056 1.416-.002.05-.01.096-.013.145-.04.027-.075.056-.116.082a8.345 8.345 0 0 1-1.255.658c.254-.355.5-.721.726-1.113.226-.392.42-.79.602-1.188zM6.387 16.71c.714.378 1.515.68 2.377.9.62.635 1.28 1.18 1.963 1.608-1.006.238-1.944.152-2.721-.297-.778-.45-1.323-1.22-1.62-2.211zm11.226 0c-.296.99-.84 1.762-1.617 2.21-.777.45-1.717.536-2.723.298a10.754 10.754 0 0 0 1.963-1.608c.862-.22 1.663-.522 2.377-.9zm-6.94 1.23c.435.043.875.07 1.327.07.452 0 .893-.027 1.328-.07-.394.296-.796.551-1.197.756-.044.023-.087.04-.131.06-.044-.02-.087-.037-.13-.06-.402-.205-.802-.46-1.196-.756z"/></svg>
